resources/haticons/SVG/burst_mode.svg

<!-- Generated by IcoMoon.io -->
<svg version="1.1" xmlns="http://www.w3.org/2000/svg" width="24" height="24" viewBox="0 0 24 24">
<title>burst_mode</title>
<path d="M11.016 17.016h9.984l-3.188-4.219-2.531 3.188-1.781-2.156zM21.984 5.016q0.422 0 0.727 0.281t0.305 0.703v12q0 0.422-0.305 0.703t-0.727 0.281h-12q-0.422 0-0.703-0.281t-0.281-0.703v-12q0-0.422 0.281-0.703t0.703-0.281h12zM5.016 5.016h1.969v13.969h-1.969v-13.969zM0.984 5.016h2.016v13.969h-2.016v-13.969z"></path>
</svg>

<svg xmlns="http://www.w3.org/2000/svg" width="24" height="24"><path d="M11.016 17.016H21l-3.188-4.219-2.531 3.188-1.781-2.156zm10.968-12q.422 0 .727.281t.305.703v12q0 .422-.305.703t-.727.281h-12q-.422 0-.703-.281T9 18V6q0-.422.281-.703t.703-.281h12zm-16.968 0h1.969v13.969H5.016V5.016zm-4.032 0H3v13.969H.984V5.016z"/></svg>
